X: 27730
T: Morning Mist
R: reel
M: 4/4
K: Dmajor
AB/c/|:dcde dAFD|GFGA F/G/A DE|FDdc BAGF|EFGE ABcA|
dcde dAFD|GFGA F/G/A DE|FDdc BAGF|EA,CE D3z:|
|:ABcd efge|f/e/d c/d/e/c/ dAFD|FDdc BAGF|
EFGE ABcA|dcde dAFD|GFGA F/G/ A DE|FDdc BAGF|EA,CE D3z:|
|:adfa bdgb|adfa gfec|dcBA GFED|EA^GB A2 AB/c/|
dAdf eAeg|f2a^f gfge|abaf gfec|dAFA d2 (3efg:|

